X: 514
T:Jenny's Bawbee
R:strathspey
B:RSCDS 5-3
Z: 1997 by John Chambers
M:C
L:1/16
N:Posted to the woodenflute mailing list May 2002
K:D
|: f2 \
| "D"a3b a3g fd3 d3f | "Em"g3B e3d "A7"cA3 A3f \
| "D"a3b a3g fd3 d3f | "G"BB3 "A7"c3A "D"[d6F6] :|
|: d/e/ \
| "D"f3d "A7"g3e "D"fd3 d3e/f/ | "Em"g3B e3d "A7"cA3 A3e/f/ \
| "D"f3d "A7"g3e "D"fd3 fa3 | "G"BB3 "A7"c3A "D"[d6F6] :|

